X:71
T:?
M:4/4
L:1/8
S:Jerry O'Sullivan
R:reel
K:D
D2~D2 AD~D2|Addc defd|D2~D2 ADFA|(3Bcd AF GFEF|
D2~D2 AD~D2|Addc defg|~f2ec dcBA|1 (3Bcd AG FAEA:||2 BdAG FAD2|
||:~d3B AF~F2|AFBF AF~F2|~d3B AF~F2|(3Bcd AF EGFE|
Dddc BcdB|AF~F2 ABde|~f2ec dcBA|1 (3Bcd AG FAD2:||2 (3Bcd AG FAEA||


